X: 21429
T: Kev's Trip To Brittany
R: reel
M: 4/4
K: Gmajor
G2 FG AB G2-|GAAG F2 ED|G2 FG AB G2|F/G/F ED G2 GF|
G2 FG AB G2-|Gc-cB AGGF|G2 FG AB G2|F/G/F ED G2 GA||
~B2 AB cB A2|AB AG F2 ED|B2 B/B/B cBAG|F/G/F EF GFGA|
~B2 AB cB A2|AB AG F2 ED|G2 FG AB G2|F/G/F ED CB,CA,||"end" F2 ED G4||

